images/viavi.svg

<svg xmlns="http://www.w3.org/2000/svg" xmlns:xlink="http://www.w3.org/1999/xlink" preserveAspectRatio="xMidYMid" width="176" height="35" viewBox="0 0 176 35">
  <defs>
    <style>

      .cls-2 {
        fill: #502874;
      }
    </style>
  </defs>
  <path d="M175.467,34.996 C175.467,34.996 166.172,34.996 166.172,34.996 C165.878,34.996 165.638,34.751 165.638,34.451 C165.638,34.451 165.638,0.544 165.638,0.544 C165.638,0.245 165.878,0.000 166.172,0.000 C166.172,0.000 175.467,0.000 175.467,0.000 C175.761,0.000 176.001,0.245 176.001,0.544 C176.001,0.544 176.001,34.451 176.001,34.451 C176.001,34.751 175.761,34.996 175.467,34.996 ZM150.616,10.309 C150.616,10.309 141.320,10.309 141.320,10.309 C141.027,10.309 140.786,10.070 140.786,9.778 C140.786,9.778 140.786,0.531 140.786,0.531 C140.786,0.239 141.027,0.000 141.320,0.000 C141.320,0.000 150.616,0.000 150.616,0.000 C150.910,0.000 151.150,0.239 151.150,0.531 C151.150,0.531 151.150,9.778 151.150,9.778 C151.150,10.070 150.910,10.309 150.616,10.309 ZM140.940,24.915 C140.940,24.915 135.245,34.698 135.245,34.698 C135.029,35.071 134.674,35.071 134.457,34.698 C134.457,34.698 114.217,0.746 114.217,0.746 C113.982,0.337 114.174,0.004 114.644,0.004 C114.644,0.004 126.436,0.000 126.436,0.000 C126.766,0.000 127.076,0.181 127.237,0.458 C127.237,0.458 140.940,23.999 140.940,23.999 C141.104,24.281 141.104,24.634 140.940,24.915 ZM111.882,34.994 C111.882,34.994 100.769,34.994 100.769,34.994 C100.445,34.994 100.141,34.814 99.984,34.539 C99.984,34.539 86.655,11.098 86.655,11.098 C86.492,10.820 86.492,10.472 86.655,10.194 C86.655,10.194 91.516,0.271 91.516,0.271 C91.729,-0.098 92.298,-0.098 92.511,0.271 C92.511,0.271 112.302,34.263 112.302,34.263 C112.534,34.666 112.345,34.994 111.882,34.994 ZM85.381,34.996 C85.381,34.996 76.111,34.996 76.111,34.996 C75.818,34.996 75.579,34.758 75.579,34.467 C75.579,34.467 75.579,25.248 75.579,25.248 C75.579,24.957 75.818,24.719 76.111,24.719 C76.111,24.719 85.381,24.719 85.381,24.719 C85.675,24.719 85.914,24.957 85.914,25.248 C85.914,25.248 85.914,34.467 85.914,34.467 C85.914,34.758 85.675,34.996 85.381,34.996 ZM60.556,34.996 C60.556,34.996 51.260,34.996 51.260,34.996 C50.966,34.996 50.726,34.751 50.726,34.451 C50.726,34.451 50.726,0.544 50.726,0.544 C50.726,0.245 50.966,0.000 51.260,0.000 C51.260,0.000 60.556,0.000 60.556,0.000 C60.849,0.000 61.089,0.245 61.089,0.544 C61.089,0.544 61.089,34.451 61.089,34.451 C61.089,34.751 60.849,34.996 60.556,34.996 ZM35.297,10.307 C35.297,10.307 26.832,10.307 26.832,10.307 C26.128,10.307 25.892,9.658 25.892,9.370 C25.892,9.370 25.892,0.935 25.892,0.935 C25.892,-0.002 26.544,-0.002 26.832,-0.002 C26.832,-0.002 35.297,-0.002 35.297,-0.002 C36.030,-0.002 36.237,0.646 36.237,0.935 C36.237,0.935 36.237,9.370 36.237,9.370 C36.237,9.658 35.921,10.307 35.297,10.307 ZM25.922,25.055 C25.922,25.055 20.324,34.702 20.324,34.702 C20.111,35.069 19.762,35.069 19.549,34.702 C19.549,34.702 0.031,0.970 0.031,0.970 C-0.202,0.570 0.548,-0.002 1.011,-0.002 C1.011,-0.002 11.799,-0.002 11.799,-0.002 C12.123,-0.002 12.622,0.697 12.779,0.970 C12.779,0.970 25.922,24.152 25.922,24.152 C26.083,24.430 26.083,24.777 25.922,25.055 Z" id="path-1" class="cls-2" fill-rule="evenodd"/>
</svg>

<svg id="Layer_1" xmlns="http://www.w3.org/2000/svg" viewBox="0 0 176 35"><style>.st0{fill:#fff}</style><path class="st0" d="M175.5 35h-9.3c-.3 0-.5-.2-.5-.5V.5c0-.3.2-.5.5-.5h9.3c.3 0 .5.2.5.5v33.9c0 .4-.2.6-.5.6zM150.6 10.3h-9.3c-.3 0-.5-.2-.5-.5V.5c0-.3.2-.5.5-.5h9.3c.3 0 .5.2.5.5v9.2c0 .4-.2.6-.5.6zM111.9 35h-11.1c-.3 0-.6-.2-.8-.5L86.7 11.1c-.2-.3-.2-.6 0-.9L91.6.3c.2-.4.8-.4 1 0l19.8 34c.1.4-.1.7-.5.7zM85.4 35h-9.3c-.3 0-.5-.2-.5-.5v-9.2c0-.3.2-.5.5-.5h9.3c.3 0 .5.2.5.5v9.2c0 .3-.2.5-.5.5zM60.6 35h-9.3c-.3 0-.5-.2-.5-.5V.5c-.1-.3.2-.5.5-.5h9.3c.3 0 .5.2.5.5v33.9c0 .4-.3.6-.5.6zM35.3 10.3h-8.5c-.7 0-.9-.6-.9-.9V.9c0-.9.6-.9.9-.9h8.5c.7 0 .9.6.9.9v8.4c0 .4-.3 1-.9 1zM25.9 25.1l-5.6 9.6c-.2.4-.6.4-.8 0L0 1C-.2.6.5 0 1 0h10.8c.3 0 .8.7 1 1l13.1 23.2c.2.2.2.6 0 .9zM140.8 25.1l-5.6 9.6c-.2.4-.6.4-.8 0L114.9 1c-.2-.4.5-1 1-1h10.8c.3 0 .8.7 1 1l13.1 23.2c.2.2.2.6 0 .9z"/></svg>
